X:1
T:Buried with Christ
T:Buried with Christ
T:William James Kirkpatrick
T:Thomas Ryder, 1875
T:Public Domain Courtesy of the Cyber Hymnal™
T:Public Domain Courtesy of the Cyber Hymnal™
C:William James Kirkpatrick
Z:Public Domain
Z:Courtesy of the Cyber Hymnal™
%%score ( 1 2 ) ( 3 4 )
L:1/8
Q:1/4=110
M:9/8
K:A
V:1 treble 
V:2 treble 
V:3 bass 
V:4 bass 
V:1
 [CE][DF][CE] | [CA]3 [EA]3 [EB][EA][EB] | [Ec]6 [Ec][DB][Ec] | [Ge]3 [FA]3 ([^DA][DG])[DA] | %4
w: 1.~Bur- ied with|Christ and raised with Him,|too, What is there|left for me * to|
w: 2.~Ris- en with|Christ my glor- i- ous|head, Ho- li- ness|now the pathway * I|
w: 3.~Liv- ing with|Christ, who di- eth no|more, Fol- low- ing|Christ, Who goeth * be-|
 [DB]6 [Ec][^D^B][Ec] | [CA]3 [CE]3 E[EA][Ec] | e6 [Fe][Fd][FB] | [Ec]3 [CA]3 [DB][DF][DG] | %8
w: do? Simp- ly to|cease from strugg- ling and|strife, Simp- ly to|walk in new- ness of|
w: tread; Beau- ti- ful|thought from walk- ing there-|in, He that is|dead is freed from all|
w: fore; Not un- der|law, I’m now un- der|grace, Sin is de-|throned, and Christ takes its|
 [CA]6 ||"^Refrain" [Cc][Cc][Cc] | [Cc]3 G3 AGF | C6 [^Ec][Ec][Ec] | [Fc]3 [FA]3 [DA][^DG][DA] | %13
w: life.|||||
w: sin.|Bur- ied with|Christ and dead un- to|sin; Dy- ing but|liv- ing, Je- sus with-|
w: place.|||||
 [EB]6 [Ec][^D^B][Ec] | [CA]3 [CE]3 E[EA][Ec] | e6 [Fe][Fd][FB] | [Ec]3 [CA]3 [DB][DF][DG] | %17
w: ||||
w: in; Rul- ing and|reign- ing day af- ter|day, Guid- ing and|keep- ing all of the|
w: ||||
 [CA]6 |] %18
w: |
w: way.|
w: |
V:2
 x3 | x9 | x9 | x9 | x9 | x6 E x2 | (E3 =G3) x3 | x9 | x6 || x3 | x3 G3 AGF | C6 x3 | x9 | x9 | %14
 x6 E x2 | (E3 =G3) x3 | x9 | x6 |] %18
V:3
 [A,,A,][A,,A,][A,,A,] | [A,,E,]3 [C,A,]3 [E,G,][E,F,][E,G,] | A,6 A,A,A, | %3
 [E,B,]3 [F,A,]3 ([B,,F,][B,,B,])[B,,A,] | [E,G,]6 [A,,A,][A,,A,][A,,A,] | %5
 [A,,E,]3 [A,,A,]3 [C,A,][C,A,][C,A,] | [C,A,]6 [D,A,][D,A,][D,A,] | %7
 [E,A,]3 [E,A,]3 [E,G,][E,A,][E,B,] | [A,,A,]6 || [C,C][C,C][C,C] | [C,C]3 G,3 A,G,F, | %11
 C,6 [C,G,][C,G,][C,G,] | [F,A,]3 [F,C]3 [B,,B,][B,,B,][B,,A,] | [E,G,]6 [A,,A,][A,,A,][A,,A,] | %14
 [A,,A,]3 [A,,A,]3 [C,A,][C,A,][C,A,] | [C,A,]6 [D,A,][D,A,][D,A,] | %16
 [E,A,]3 [E,A,]3 [E,G,][E,A,][E,B,] | [A,,A,]6 |] %18
V:4
 x3 | x9 | A,6 A,A,A, | x9 | x9 | x9 | x9 | x9 | x6 || x3 | x3 G,3 A,G,F, | C,6 x3 | x9 | x9 | x9 | %15
 x9 | x9 | x6 |] %18

